X:1
T: Old Woman - Sherborne
M: 4/4
L: 1/8
R: Rag Morris
C:Trad
K: G
Z: ABC by Rag (2009) & Mackin
r: 24
[P:A] |: "G" GA B2 c2 d2 |  "C" ed "D" c2 "G" B2 D2 | "C" cB c2 "C/A" A2 d2| [1 "G/D" B2 "D" A2 "G" G2 "D" D2 :|][2 "G/D" B2 "D" A2 "G" G4] |
P:B
|: "G" Bc d2 Bc d2 | Bc d2 "C" ec A2| "C/A" AB c2 AB c2 | "G" dc "G/B" B2 "D" A4 |
"G" GA B2 c2 d2 | "C" ed "D" c2 "G" B2 G2 | "C" cB c2 "C/A" A2 d2 | [1 "G/D" B2 "D" A2 "G" G4 :| ][2 "G/D" B2 "D" A2 "G" G2 "D" D2 ] |
